X:1
T:He Will Hold Me Fast
T:He Will Hold Me Fast
T:Robert Harkness
T:Ada Ruth Habershon, 1906
T:Public Domain Courtesy of the Cyber Hymnal™
T:Public Domain Courtesy of the Cyber Hymnal™
C:Robert Harkness
Z:Public Domain
Z:Courtesy of the Cyber Hymnal™
%%score ( 1 2 ) 3 ( 4 5 )
L:1/8
Q:1/4=125
M:4/4
K:F
V:1 treble 
V:2 treble 
V:3 treble 
V:4 bass 
V:5 bass 
V:1
 A2 c2 A2 G2 | G2 c2 (A2 G2) | F2 A2 F2 E2 | D8 | B2 d2 B2 A2 | G2 B2 (G2 F2) | %6
w: 1.~When I fear my|faith will fail, *|Christ will hold me|fast;|When the tempt- er|would pre- vail, *|
w: 2.~I could ne- ver|keep my hold, *|He will hold me|fast;|For my love is|oft- en cold, *|
w: 3.~I am pre- cious|in His sight, *|He will hold me|fast;|Those He saves are|His de- light. *|
w: 4.~He’ll not let my|soul be lost, *|Christ will hold me|fast;|Bought by Him at|such a cost, *|
"^rall." E2 G2 D2 G2 | (C4 c6) ||"^Refrain" [FA]2 [Fc]2 [EA]2 [EG]2 | F6 z2 | %10
w: He can hold me|fast. *|||
w: He must hold me|fast. *|He will hold me|fast,|
w: He will hold me|fast. *|||
w: He will hold me|fast. *|||
 [DF]2 [DA]2 [^CF]2 [CE]2 | [B,D]6 z2 | C2 [CF]2 [FA]2 [Fc]2 | [Ee]2 [Ed]2 (c2 A2) | %14
w: ||||
w: He will hold me|fast;|For my Sav- ior|loves me so, *|
w: ||||
w: ||||
 F2 [Fd]2 [FA]2 [EG]2 | F6 z2 |] %16
w: ||
w: He will hold me|fast.|
w: ||
w: ||
V:2
 x8 | x8 | x8 | D8 | x8 | x8 | x8 | x10 || x8 | (F2 D2 C2) x2 | x8 | x8 | C2 x6 | x4 F4 | x8 | %15
 F6 x2 |] %16
V:3
 [FAc]4 [FAc]2 [EBc]2 | [EBc]4 ([FAc]2 [EBc]2) | [CFAc]4 [CFAc]2 [^CGA^c]2 | [DFAd]8 | %4
 [DGBd]4 [DGBd]2 [D^Fcd]2 | [DGBd]4 [DGBd]2 [DGBd]2 | [CEGc]4 [F=Bd]4 | [GBce]2 [EBc]2 [Bceg]6 || %8
 x8 | x8 | x8 | x8 | x8 | x8 | x8 | x8 |] %16
V:4
 A,2 C2 A,2 G,2 | G,2 C2 (A,2 G,2) | F,2 A,2 F,2 E,2 | D,8 | B,2 D2 B,2 A,2 | G,2 A,2 G,2 F,2 | %6
 E,2 G,2 D,2 G,2 | C,4 C6 || [F,C]2 [F,A,]2 [C,C]2 [C,B,]2 | (A,2 B,2 A,2) z2 | %10
 [D,A,]2 [D,F,]2 [A,,A,]2 [A,,G,]2 | F,2 G,2 F,2 z2 | [F,A,]2 [F,A,]2 [F,C]2 [F,A,]2 | %13
 [G,B,]2 [G,B,]2 C4 | [D,D]2 [B,,D]2 [C,C]2 [C,B,]2 | [F,A,]6 z2 |] %16
V:5
 x8 | x8 | x8 | x8 | x8 | x8 | x8 | x10 || x8 | F,6 x2 | x8 | B,,6 x2 | x8 | x4 (A,2 F,2) | x8 | %15
 x8 |] %16

